brandFactory_export/3.Masa/Ratón_3Masa.svg

<?xml version="1.0" encoding="UTF-8"?>
<svg width="24px" height="24px" viewBox="0 0 24 24" version="1.1" xmlns="http://www.w3.org/2000/svg" xmlns:xlink="http://www.w3.org/1999/xlink">
    <title>3.Masa/Ratón_3Masa</title>
    <g id="Symbols" stroke="none" stroke-width="1" fill="none" fill-rule="evenodd">
        <g id="3.Masa/Ratón_3Masa" fill="#5CB615" fill-rule="nonzero">
            <path d="M5.67563025,0.0302521008 C6.03865546,0.0302521008 6.33445378,0.32605042 6.33445378,0.68907563 C6.33445378,1.75462185 7.61176471,2.13445378 8.80840336,2.13445378 L11.1109244,2.13445378 C12.1529412,2.13445378 12.9630252,2.60168067 13.389916,3.4487395 C13.6722689,4.00413704 13.6997166,4.54521406 13.7022686,4.67804608 L13.702489,5.14632524 C15.5058483,5.25510021 16.9353875,5.80097302 17.9579832,6.7697479 C19.1512605,7.9092437 19.7596639,9.59663866 19.7596639,11.7915966 L19.7596639,11.7915966 L19.7596639,16.9647059 C19.7596639,19.2403361 19.2319328,20.8806723 18.1462185,21.9731092 C17.0369748,23.0890756 15.3596639,23.6302521 13.0134454,23.6302521 C10.8823529,23.6302521 9.21848739,23.0789916 8.06890756,21.9865546 C6.87226891,20.8504202 6.26722689,19.1596639 6.26722689,16.9647059 L6.26722689,16.9647059 L6.26722689,11.7915966 C6.26722689,9.59663866 6.87226891,7.90588235 8.06890756,6.7697479 C9.10042972,5.7896506 10.5539078,5.24239835 12.3876935,5.1426905 L12.3882353,4.70588235 C12.3882353,4.68235294 12.3747899,4.33613445 12.2,4.01344538 C11.9915966,3.62689076 11.6453782,3.4487395 11.107563,3.4487395 L8.80504202,3.4487395 C7.72941176,3.4487395 6.80840336,3.21008403 6.14285714,2.75966387 C5.41680672,2.26554622 5.01680672,1.52941176 5.01680672,0.68907563 C5.01680672,0.32605042 5.31260504,0.0302521008 5.67563025,0.0302521008 Z M7.48067227,12.6084034 C7.14789916,12.5714286 6.84201681,12.7462185 6.79495798,12.994958 C6.74789916,13.2436975 6.97983193,13.4756303 7.31260504,13.5092437 C9.20840336,13.7042017 11.1109244,13.8016807 13.0168067,13.7983193 C14.9226891,13.7983193 16.8252101,13.7042017 18.7210084,13.5092437 C19.0537815,13.4756303 19.2857143,13.2436975 19.2386555,12.994958 C19.1915966,12.7462185 18.8857143,12.5747899 18.5529412,12.6084034 C16.7142857,12.7966387 14.8655462,12.8907563 13.0168067,12.887395 C11.1680672,12.8907563 9.31932773,12.7966387 7.48067227,12.6084034 Z M13.0134454,7.40168067 C12.6504202,7.40168067 12.3546218,7.69747899 12.3546218,8.0605042 L12.3546218,8.0605042 L12.3546218,11.512605 C12.3579832,11.8756303 12.6504202,12.1714286 13.0134454,12.1714286 C13.3764706,12.1714286 13.6722689,11.8756303 13.6722689,11.512605 L13.6722689,11.512605 L13.6722689,8.0605042 C13.6689076,7.69747899 13.3764706,7.40168067 13.0134454,7.40168067 Z" id="Ratón_3Masa"></path>
        </g>
    </g>
</svg>

<svg width="24" height="24" viewBox="0 0 24 24" xmlns="http://www.w3.org/2000/svg"><path d="M5.676.03a.66.66 0 01.658.66c0 1.065 1.278 1.444 2.474 1.444h2.303c1.042 0 1.852.468 2.279 1.315.282.555.31 1.096.312 1.229v.468c1.804.11 3.233.655 4.256 1.624 1.193 1.14 1.802 2.827 1.802 5.022v5.173c0 2.275-.528 3.916-1.614 5.008-1.109 1.116-2.786 1.657-5.133 1.657-2.13 0-3.795-.551-4.944-1.643-1.197-1.137-1.802-2.827-1.802-5.022v-5.173c0-2.195.605-3.886 1.802-5.022 1.031-.98 2.485-1.528 4.319-1.627v-.437c0-.024-.013-.37-.188-.693-.208-.386-.555-.564-1.092-.564H8.805c-1.076 0-1.997-.239-2.662-.69-.726-.493-1.126-1.23-1.126-2.07A.66.66 0 015.676.03zM7.48 12.608c-.333-.037-.639.138-.686.387-.047.249.185.48.518.514 1.895.195 3.798.293 5.704.29 1.906 0 3.808-.095 5.704-.29.333-.033.565-.265.518-.514-.047-.249-.353-.42-.686-.387a53.42 53.42 0 01-5.536.28 53.42 53.42 0 01-5.536-.28zm5.532-5.206a.66.66 0 00-.658.659v3.452a.662.662 0 00.658.658.66.66 0 00.66-.658V8.06a.662.662 0 00-.66-.66z" fill="#5CB615" fill-rule="nonzero"/></svg>
